src/topics/icons/randomcolor.svg

<svg height="258" preserveAspectRatio="xMidYMid" viewBox="0 0 256 258" width="256" xmlns="http://www.w3.org/2000/svg"><path d="m76.188 140.056 7.168 5.599-5.321 6.81-7.171-5.605-5.605 7.172-6.815-5.326 5.605-7.172-7.169-5.599 5.327-6.814 7.173 5.604 5.603-7.172 6.81 5.33z" fill="#100c72"/><path d="m147.117 110.789 13.048 3.157-7.653 31.624-13.048-3.157z" fill="#26efc4"/><path d="m89.331 40.203 13.401.776-1.88 32.48-13.401-.776z" fill="#5740b2"/><path d="m105.754 120.128 30.28 9.117-6.953 23.092-30.28-9.117z" fill="#c7f9fc"/><path d="m7.776 113.571 14.81 27.38-14.636-.28-7.95-14.694z" fill="#016a91"/><path d="m112.412 91.348 21.159 22.834-14.246 3.37-11.356-12.254z" fill="#f1fcab"/><path d="m135.77 101.409-11.545-11.046 7.149-16.244 11.544 11.046z" fill="#8218bf"/><path d="m36.399 55.966-3.403-12.604 9.215-9.25 12.619 3.357 3.402 12.605-9.216 9.249z" fill="#f9c27f"/><path d="m6.982 107.34 6.131-21.768 15.785 16.193z" fill="#5ac425"/><path d="m149.811 2.674-15.048 13.069-13.001-15.106z" fill="#7b4ab2"/><path d="m75.692 97.748 11.429-19.968 19.917 11.518z" fill="#69d637"/><path d="m96.015 5.249 1.813 4.731-30.685 11.761-1.813-4.732z" fill="#f8cc7e"/><path d="m210.09 29.881-2.724 4.272-27.704-17.672 2.725-4.272z" fill="#dd7a96"/><path d="m43.554 84.745 7.547 1.7-10.251 45.492-7.546-1.7z" fill="#6b14b2"/><path d="m24.317 146.037c-10.236 0-18.533 8.297-18.533 18.535 0 10.236 8.298 18.535 18.533 18.535 10.239 0 18.536-8.299 18.536-18.535h-18.536z" fill="#43c648"/><path d="m28.495 108.361c2.948 1.297 3.776 5.899 1.849 10.279s-5.879 6.879-8.827 5.582c-2.949-1.297-3.777-5.9-1.85-10.279 1.927-4.38 5.879-6.879 8.828-5.582" fill="#4bcaf4"/><path d="m97.53 99.269c4.99 2.295 6.272 10.164 2.863 17.576s-10.217 11.561-15.207 9.266-6.273-10.164-2.864-17.576 10.217-11.561 15.208-9.266" fill="#116570"/><path d="m108.217 159.401c2.386 5.18.12 11.314-5.06 13.7-5.181 2.385-11.314.12-13.699-5.062-2.386-5.18-.439-25.637-.439-25.637s16.813 11.818 19.198 16.999" fill="#0cd12a"/><path d="m79.882 30.998c4.478 3.531 5.248 10.024 1.719 14.505-3.53 4.479-10.023 5.248-14.504 1.718-4.479-3.53-12.042-22.639-12.042-22.639s20.346 2.886 24.827 6.416" fill="#96e83e"/><path d="m40.837 159.46c-5.986 0-10.856-4.87-10.856-10.855s4.87-10.856 10.856-10.856c5.985 0 10.854 4.871 10.854 10.856s-4.869 10.855-10.854 10.855zm0-16.752c-3.252 0-5.896 2.645-5.896 5.897s2.645 5.896 5.896 5.896 5.895-2.644 5.895-5.896-2.644-5.897-5.895-5.897z" fill="#19218e"/><path d="m26.677 86.321c-7.415 0-13.447-6.033-13.447-13.448s6.032-13.448 13.447-13.448 13.446 6.033 13.446 13.448-6.031 13.448-13.446 13.448zm0-20.752c-4.028 0-7.304 3.276-7.304 7.304s3.276 7.305 7.304 7.305c4.027 0 7.303-3.277 7.303-7.305s-3.276-7.304-7.303-7.304z" fill="#51870c"/><path d="m207.757 175.816 7.977 2.481-6.821 4.824.106 8.353-6.695-4.997-7.912 2.683 2.684-7.911-4.997-6.696 8.354.107 4.823-6.821z" fill="#94e1e8"/><path d="m119.331 17.823c7.043 0 12.752 5.709 12.752 12.752 0 7.042-5.709 12.751-12.752 12.751-7.042 0-12.751-5.709-12.751-12.751 0-7.043 5.709-12.752 12.751-12.752" fill="#8bd1dd"/><path d="m50.831 61.853c4.603 0 8.334 3.731 8.334 8.334 0 4.602-3.731 8.333-8.334 8.333-4.602 0-8.333-3.731-8.333-8.333 0-4.603 3.731-8.334 8.333-8.334" fill="#f202a6"/><path d="m98.225 20.303 1.186 8.796-7.999 3.845-6.129-6.418 4.209-7.813z" fill="#a6e843"/><path d="m230.34 130.5 9.493 9.494-23.009 23.005-9.492-9.494z" fill="#0daf05"/><path d="m210.37 36.85-2.725 11.19-34.976-8.517 2.725-11.19z" fill="#dfed1e"/><path d="m153.459 61.659 9.79 12.81-9.769 7.466-9.79-12.81z" fill="#9533e0"/><path d="m209.751 140.983-11.102-11.493 7.782-15.95 11.1 11.492z" fill="#1362e8"/><path d="m194.719 70.574 3.378-12.611 12.613-3.379 9.231 9.232-3.379 12.612-12.611 3.379z" fill="#1b5db5"/><path d="m115.153 59.201 15.391-16.568 6.652 21.613z" fill="#99b5e5"/><path d="m85.73 176.704-6.882 27.433-27.403-7.003z" fill="#9ff4b7"/><path d="m171.788 81.136 19.93-.043-.045 19.929z" fill="#ed74c4"/><path d="m157.557 146.303 4.134 6.538-42.402 26.809-4.134-6.537z" fill="#199908"/><path d="m192.928 116.841c1.906 5.152-2.752 11.623-10.404 14.454-7.653 2.831-15.401.95-17.307-4.201-1.906-5.152 2.752-11.623 10.404-14.455 7.653-2.831 15.401-.95 17.307 4.202" fill="#ff75c3"/><path d="m198.207 145.569c4.94 2.851 6.636 9.166 3.787 14.107-2.85 4.939-9.165 6.636-14.106 3.786-4.94-2.85-15.172-20.671-15.172-20.671s20.55-.071 25.491 2.778" fill="#21b749"/><path d="m125.166 232.935c-5.243-5.243-5.243-13.774 0-19.016 5.243-5.244 13.775-5.244 19.018-.001 5.244 5.243 5.242 13.774-.001 19.017-5.243 5.244-13.773 5.244-19.017 0zm14.675-14.673c-2.849-2.849-7.482-2.848-10.33 0-2.849 2.849-2.849 7.482 0 10.33 2.848 2.848 7.48 2.848 10.329-.001 2.848-2.848 2.849-7.482.001-10.329z" fill="#eb9e72"/><path d="m43.653 206.129c-.444 4.772-2.792 8.922-6.214 11.763l-5.067-6.106c1.862-1.545 3.137-3.795 3.378-6.392.483-5.183-3.344-9.795-8.532-10.283-2.598-.242-5.044.596-6.906 2.141l-5.066-6.106c3.423-2.84 7.934-4.382 12.707-3.939 9.544.888 16.588 9.378 15.7 18.922" fill="#046c70"/><path d="m167.301 92.908 8.207 5.143-9.075 3.386-2.356 9.395-6.024-7.585-9.664.663 5.354-8.073-3.617-8.986 9.331 2.595 7.428-6.216z" fill="#37e8c7"/><path d="m223.574 47.011c2.718 0 4.921 2.203 4.921 4.921 0 2.717-2.203 4.92-4.921 4.92-2.717 0-4.92-2.203-4.92-4.92 0-2.718 2.203-4.921 4.92-4.921" fill="#c16a3c"/><path d="m115.036 67.269c4.602 0 8.333 3.731 8.333 8.333s-3.731 8.333-8.333 8.333-8.333-3.731-8.333-8.333 3.731-8.333 8.333-8.333" fill="#a1d626"/><path d="m234.661 108.687-2.537 8.506-8.874.214-2.946-8.371 7.051-5.39z" fill="#e868e3"/><path d="m178.293 217.735-1.506-21.243 17.595-1.247 1.505 21.243z" fill="#14db96"/><path d="m173.67 244.252-29.627 9.553 2.953-14.339 15.901-5.127z" fill="#71f902"/><path d="m164.882 44.108-7.762 10.497-12.972-1.475-5.21-11.972 7.764-10.497 12.971 1.474z" fill="#b58e2b"/><path d="m243.76 182.954-5.571 11.809-13.011 1.078-7.44-10.729 5.571-11.807 13.012-1.08z" fill="#ba8712"/><path d="m191.953 55.362-15.633 14.146-4.435-20.61z" fill="#a4f9bd"/><path d="m164.675 221.613-12.765-15.307 15.363-12.696z" fill="#33089e"/><path d="m82.941 247.072 1.613-7.567 49.065 10.46-1.613 7.567z" fill="#8cebb2"/><path d="m167.126 26.544c5.797-2.652 8.347-9.5 5.694-15.298-2.651-5.797-9.5-8.347-15.296-5.695-5.799 2.652-8.347 9.501-5.695 15.298l10.496-4.802z" fill="#1f0fff"/><path d="m103.526 13.534c-1.285-2.955 1.229-6.897 5.617-8.806 4.387-1.909 8.986-1.062 10.271 1.893 1.285 2.954-1.229 6.896-5.617 8.805-4.387 1.909-8.985 1.062-10.271-1.892" fill="#71e567"/><path d="m218.043 91.043c2.389 5.488-.133 11.897-5.622 14.285-5.488 2.388-11.896-.134-14.285-5.623-2.388-5.488.134-11.895 5.624-14.284 5.488-2.387 11.896.135 14.283 5.622zm-15.36 6.684c1.297 2.981 4.778 4.351 7.76 3.054 2.98-1.297 4.351-4.778 3.054-7.759s-4.778-4.35-7.758-3.053c-2.982 1.297-4.353 4.777-3.056 7.758z" fill="#5b26af"/><path d="m185.868 226.006c4.603 0 8.333 3.731 8.333 8.333 0 4.603-3.73 8.334-8.333 8.334-4.602 0-8.333-3.731-8.333-8.334 0-4.602 3.731-8.333 8.333-8.333" fill="#8aef81"/><path d="m140.716 175.355c6.919 0 12.529 5.61 12.529 12.529 0 6.92-5.61 12.529-12.529 12.529-6.92 0-12.529-5.609-12.529-12.529 0-6.919 5.609-12.529 12.529-12.529" fill="#07775d"/><path d="m161.743 165.353 14.689-1.737 6.192 13.433-10.86 10.04-12.907-7.226z" fill="#d18e36"/><path d="m67.773 241.625-26.106-17.848 13.612-19.909 26.105 17.848z" fill="#1385ef"/><path d="m251.151 85.743c1.066 5.603-2.611 11.009-8.213 12.075-5.603 1.066-11.009-2.612-12.075-8.215s5.758-24.987 5.758-24.987 13.465 15.524 14.53 21.127" fill="#f8bbb9"/><path d="m94.674 181.599c2.519-3.162 9.721-1.613 16.087 3.458 6.366 5.072 9.485 11.747 6.966 14.908-2.519 3.162-9.722 1.614-16.088-3.458-6.365-5.072-9.484-11.746-6.965-14.908" fill="#cc94f8"/><path d="m107.043 237.362-17.174-12.146 6.159-22.536 17.174 12.146z" fill="#67a4e5"/><path d="m63.476 101.506-7.362-15.776 13.672-13.672 7.363 15.775z" fill="#af2636"/><path d="m55.832 104.888c-4.118 4.866-3.512 12.149 1.354 16.267 4.866 4.119 12.148 3.513 16.266-1.351 4.12-4.867 3.512-12.15-1.353-16.268l-7.457 8.811z" fill="#f4abd7"/><path d="m45.614 177.747c3.22 0 5.831 2.61 5.831 5.831 0 3.22-2.611 5.831-5.831 5.831-3.221 0-5.831-2.611-5.831-5.831 0-3.221 2.61-5.831 5.831-5.831" fill="#e871ce"/><path d="m62.156 181.271-10.674-11.031 7.193-13.559 15.118 2.65 2.151 15.198z" fill="#743aa3"/><path d="m242.671 113.353c3.267-3.506 7.663-5.357 12.107-5.514l.28 7.93c-2.417.085-4.802 1.088-6.58 2.996-3.549 3.809-3.339 9.797.47 13.355 1.908 1.778 4.357 2.61 6.773 2.525l.279 7.929c-4.445.156-8.958-1.38-12.465-4.649-7.011-6.535-7.4-17.56-.864-24.572" fill="#d348d6"/><path d="m249.699 155.055c2.949 1.298 3.777 5.9 1.85 10.279-1.927 4.38-5.88 6.878-8.829 5.581-2.949-1.298-3.777-5.9-1.849-10.28 1.927-4.379 5.88-6.878 8.828-5.58" fill="#9a08c6"/><path d="m230.673 207.173-22.369 21.648-3.679-14.171 12.007-11.618z" fill="#29dba8"/><path d="m72.587 62.461 1.576 4.759-4.521 1.498-1.577-4.763-4.761 1.577-1.499-4.526 4.763-1.576-1.576-4.759 4.526-1.497 1.576 4.762 4.762-1.576 1.494 4.525z" fill="#6176d3"/></svg>

<?xml version="1.0" encoding="UTF-8" standalone="no"?>
<svg width="256px" height="258px" viewBox="0 0 256 258" version="1.1" xmlns="http://www.w3.org/2000/svg" xmlns:xlink="http://www.w3.org/1999/xlink" preserveAspectRatio="xMidYMid">
	<g>
		<path d="M76.188,140.056 L83.356,145.655 L78.035,152.465 L70.864,146.86 L65.259,154.032 L58.444,148.706 L64.049,141.534 L56.88,135.935 L62.207,129.121 L69.38,134.725 L74.983,127.553 L81.793,132.883 L76.188,140.056" fill="#100C72"></path>
		<path d="M147.117,110.789 L160.165,113.946 L152.512,145.57 L139.464,142.413 L147.117,110.789" fill="#26EFC4"></path>
		<path d="M89.331,40.203 L102.732,40.979 L100.852,73.459 L87.451,72.683 L89.331,40.203" fill="#5740B2"></path>
		<path d="M105.754,120.128 L136.034,129.245 L129.081,152.337 L98.801,143.22 L105.754,120.128" fill="#C7F9FC"></path>
		<path d="M7.776,113.571 L22.586,140.951 L7.95,140.671 L0,125.977 L7.776,113.571" fill="#016A91"></path>
		<path d="M112.412,91.348 L133.571,114.182 L119.325,117.552 L107.969,105.298 L112.412,91.348" fill="#F1FCAB"></path>
		<path d="M135.77,101.409 L124.225,90.363 L131.374,74.119 L142.918,85.165 L135.77,101.409" fill="#8218BF"></path>
		<path d="M36.399,55.966 L32.996,43.362 L42.211,34.112 L54.83,37.469 L58.232,50.074 L49.016,59.323 L36.399,55.966" fill="#F9C27F"></path>
		<path d="M6.982,107.34 L13.113,85.572 L28.898,101.765 L6.982,107.34" fill="#5AC425"></path>
		<path d="M149.811,2.674 L134.763,15.743 L121.762,0.637 L149.811,2.674" fill="#7B4AB2"></path>
		<path d="M75.692,97.748 L87.121,77.78 L107.038,89.298 L75.692,97.748" fill="#69D637"></path>
		<path d="M96.015,5.249 L97.828,9.98 L67.143,21.741 L65.33,17.009 L96.015,5.249" fill="#F8CC7E"></path>
		<path d="M210.09,29.881 L207.366,34.153 L179.662,16.481 L182.387,12.209 L210.09,29.881" fill="#DD7A96"></path>
		<path d="M43.554,84.745 L51.101,86.445 L40.85,131.937 L33.304,130.237 L43.554,84.745" fill="#6B14B2"></path>
		<path d="M24.317,146.037 C14.081,146.037 5.784,154.334 5.784,164.572 C5.784,174.808 14.082,183.107 24.317,183.107 C34.556,183.107 42.853,174.808 42.853,164.572 L24.317,164.572 L24.317,146.037" fill="#43C648"></path>
		<path d="M28.495,108.361 C31.443,109.658 32.271,114.26 30.344,118.64 C28.417,123.02 24.465,125.519 21.517,124.222 C18.568,122.925 17.74,118.322 19.667,113.943 C21.594,109.563 25.546,107.064 28.495,108.361" fill="#4BCAF4"></path>
		<path d="M97.53,99.269 C102.52,101.564 103.802,109.433 100.393,116.845 C96.984,124.257 90.176,128.406 85.186,126.111 C80.196,123.816 78.913,115.947 82.322,108.535 C85.731,101.123 92.539,96.974 97.53,99.269" fill="#116570"></path>
		<path d="M108.217,159.401 C110.603,164.581 108.337,170.715 103.157,173.101 C97.976,175.486 91.843,173.221 89.458,168.039 C87.072,162.859 89.019,142.402 89.019,142.402 C89.019,142.402 105.832,154.22 108.217,159.401" fill="#0CD12A"></path>
		<path d="M79.882,30.998 C84.36,34.529 85.13,41.022 81.601,45.503 C78.071,49.982 71.578,50.751 67.097,47.221 C62.618,43.691 55.055,24.582 55.055,24.582 C55.055,24.582 75.401,27.468 79.882,30.998" fill="#96E83E"></path>
		<path d="M40.837,159.46 C34.851,159.46 29.981,154.59 29.981,148.605 C29.981,142.62 34.851,137.749 40.837,137.749 C46.822,137.749 51.691,142.62 51.691,148.605 C51.691,154.59 46.822,159.46 40.837,159.46 L40.837,159.46 Z M40.837,142.708 C37.585,142.708 34.941,145.353 34.941,148.605 C34.941,151.857 37.586,154.501 40.837,154.501 C44.088,154.501 46.732,151.857 46.732,148.605 C46.732,145.353 44.088,142.708 40.837,142.708 L40.837,142.708 Z" fill="#19218E"></path>
		<path d="M26.677,86.321 C19.262,86.321 13.23,80.288 13.23,72.873 C13.23,65.458 19.262,59.425 26.677,59.425 C34.092,59.425 40.123,65.458 40.123,72.873 C40.123,80.288 34.092,86.321 26.677,86.321 L26.677,86.321 Z M26.677,65.569 C22.649,65.569 19.373,68.845 19.373,72.873 C19.373,76.901 22.649,80.178 26.677,80.178 C30.704,80.178 33.98,76.901 33.98,72.873 C33.98,68.845 30.704,65.569 26.677,65.569 L26.677,65.569 Z" fill="#51870C"></path>
		<path d="M207.757,175.816 L215.734,178.297 L208.913,183.121 L209.019,191.474 L202.324,186.477 L194.412,189.16 L197.096,181.249 L192.099,174.553 L200.453,174.66 L205.276,167.839 L207.757,175.816" fill="#94E1E8"></path>
		<path d="M119.331,17.823 C126.374,17.823 132.083,23.532 132.083,30.575 C132.083,37.617 126.374,43.326 119.331,43.326 C112.289,43.326 106.58,37.617 106.58,30.575 C106.58,23.532 112.289,17.823 119.331,17.823" fill="#8BD1DD"></path>
		<path d="M50.831,61.853 C55.434,61.853 59.165,65.584 59.165,70.187 C59.165,74.789 55.434,78.52 50.831,78.52 C46.229,78.52 42.498,74.789 42.498,70.187 C42.498,65.584 46.229,61.853 50.831,61.853" fill="#F202A6"></path>
		<path d="M98.225,20.303 L99.411,29.099 L91.412,32.944 L85.283,26.526 L89.492,18.713 L98.225,20.303" fill="#A6E843"></path>
		<path d="M230.34,130.5 L239.833,139.994 L216.824,162.999 L207.332,153.505 L230.34,130.5" fill="#0DAF05"></path>
		<path d="M210.37,36.85 L207.645,48.04 L172.669,39.523 L175.394,28.333 L210.37,36.85" fill="#DFED1E"></path>
		<path d="M153.459,61.659 L163.249,74.469 L153.48,81.935 L143.69,69.125 L153.459,61.659" fill="#9533E0"></path>
		<path d="M209.751,140.983 L198.649,129.49 L206.431,113.54 L217.531,125.032 L209.751,140.983" fill="#1362E8"></path>
		<path d="M194.719,70.574 L198.097,57.963 L210.71,54.584 L219.941,63.816 L216.562,76.428 L203.951,79.807 L194.719,70.574" fill="#1B5DB5"></path>
		<path d="M115.153,59.201 L130.544,42.633 L137.196,64.246 L115.153,59.201" fill="#99B5E5"></path>
		<path d="M85.73,176.704 L78.848,204.137 L51.445,197.134 L85.73,176.704" fill="#9FF4B7"></path>
		<path d="M171.788,81.136 L191.718,81.093 L191.673,101.022 L171.788,81.136" fill="#ED74C4"></path>
		<path d="M157.557,146.303 L161.691,152.841 L119.289,179.65 L115.155,173.113 L157.557,146.303" fill="#199908"></path>
		<path d="M192.928,116.841 C194.834,121.993 190.176,128.464 182.524,131.295 C174.871,134.126 167.123,132.245 165.217,127.094 C163.311,121.942 167.969,115.471 175.621,112.639 C183.274,109.808 191.022,111.689 192.928,116.841" fill="#FF75C3"></path>
		<path d="M198.207,145.569 C203.147,148.42 204.843,154.735 201.994,159.676 C199.144,164.615 192.829,166.312 187.888,163.462 C182.948,160.612 172.716,142.791 172.716,142.791 C172.716,142.791 193.266,142.72 198.207,145.569" fill="#21B749"></path>
		<path d="M125.166,232.935 C119.923,227.692 119.923,219.161 125.166,213.919 C130.409,208.675 138.941,208.675 144.184,213.918 C149.428,219.161 149.426,227.692 144.183,232.935 C138.94,238.179 130.41,238.179 125.166,232.935 L125.166,232.935 Z M139.841,218.262 C136.992,215.413 132.359,215.414 129.511,218.262 C126.662,221.111 126.662,225.744 129.511,228.592 C132.359,231.44 136.991,231.44 139.84,228.591 C142.688,225.743 142.689,221.109 139.841,218.262 L139.841,218.262 Z" fill="#EB9E72"></path>
		<path d="M43.653,206.129 C43.209,210.901 40.861,215.051 37.439,217.892 L32.372,211.786 C34.234,210.241 35.509,207.991 35.75,205.394 C36.233,200.211 32.406,195.599 27.218,195.111 C24.62,194.869 22.174,195.707 20.312,197.252 L15.246,191.146 C18.669,188.306 23.18,186.764 27.953,187.207 C37.497,188.095 44.541,196.585 43.653,206.129" fill="#046C70"></path>
		<path d="M167.301,92.908 L175.508,98.051 L166.433,101.437 L164.077,110.832 L158.053,103.247 L148.389,103.91 L153.743,95.837 L150.126,86.851 L159.457,89.446 L166.885,83.23 L167.301,92.908" fill="#37E8C7"></path>
		<path d="M223.574,47.011 C226.292,47.011 228.495,49.214 228.495,51.932 C228.495,54.649 226.292,56.852 223.574,56.852 C220.857,56.852 218.654,54.649 218.654,51.932 C218.654,49.214 220.857,47.011 223.574,47.011" fill="#C16A3C"></path>
		<path d="M115.036,67.269 C119.638,67.269 123.369,71 123.369,75.602 C123.369,80.204 119.638,83.935 115.036,83.935 C110.434,83.935 106.703,80.204 106.703,75.602 C106.703,71 110.434,67.269 115.036,67.269" fill="#A1D626"></path>
		<path d="M234.661,108.687 L232.124,117.193 L223.25,117.407 L220.304,109.036 L227.355,103.646 L234.661,108.687" fill="#E868E3"></path>
		<path d="M178.293,217.735 L176.787,196.492 L194.382,195.245 L195.887,216.488 L178.293,217.735" fill="#14DB96"></path>
		<path d="M173.67,244.252 L144.043,253.805 L146.996,239.466 L162.897,234.339 L173.67,244.252" fill="#71F902"></path>
		<path d="M164.882,44.108 L157.12,54.605 L144.148,53.13 L138.938,41.158 L146.702,30.661 L159.673,32.135 L164.882,44.108" fill="#B58E2B"></path>
		<path d="M243.76,182.954 L238.189,194.763 L225.178,195.841 L217.738,185.112 L223.309,173.305 L236.321,172.225 L243.76,182.954" fill="#BA8712"></path>
		<path d="M191.953,55.362 L176.32,69.508 L171.885,48.898 L191.953,55.362" fill="#A4F9BD"></path>
		<path d="M164.675,221.613 L151.91,206.306 L167.273,193.61 L164.675,221.613" fill="#33089E"></path>
		<path d="M82.941,247.072 L84.554,239.505 L133.619,249.965 L132.006,257.532 L82.941,247.072" fill="#8CEBB2"></path>
		<path d="M167.126,26.544 C172.923,23.892 175.473,17.044 172.82,11.246 C170.169,5.449 163.32,2.899 157.524,5.551 C151.725,8.203 149.177,15.052 151.829,20.849 L162.325,16.047 L167.126,26.544" fill="#1F0FFF"></path>
		<path d="M103.526,13.534 C102.241,10.579 104.755,6.637 109.143,4.728 C113.53,2.819 118.129,3.666 119.414,6.621 C120.699,9.575 118.185,13.517 113.797,15.426 C109.41,17.335 104.812,16.488 103.526,13.534" fill="#71E567"></path>
		<path d="M218.043,91.043 C220.432,96.531 217.91,102.94 212.421,105.328 C206.933,107.716 200.525,105.194 198.136,99.705 C195.748,94.217 198.27,87.81 203.76,85.421 C209.248,83.034 215.656,85.556 218.043,91.043 L218.043,91.043 Z M202.683,97.727 C203.98,100.708 207.461,102.078 210.443,100.781 C213.423,99.484 214.794,96.003 213.497,93.022 C212.2,90.041 208.719,88.672 205.739,89.969 C202.757,91.266 201.386,94.746 202.683,97.727 L202.683,97.727 Z" fill="#5B26AF"></path>
		<path d="M185.868,226.006 C190.471,226.006 194.201,229.737 194.201,234.339 C194.201,238.942 190.471,242.673 185.868,242.673 C181.266,242.673 177.535,238.942 177.535,234.339 C177.535,229.737 181.266,226.006 185.868,226.006" fill="#8AEF81"></path>
		<path d="M140.716,175.355 C147.635,175.355 153.245,180.965 153.245,187.884 C153.245,194.804 147.635,200.413 140.716,200.413 C133.796,200.413 128.187,194.804 128.187,187.884 C128.187,180.965 133.796,175.355 140.716,175.355" fill="#07775D"></path>
		<path d="M161.743,165.353 L176.432,163.616 L182.624,177.049 L171.764,187.089 L158.857,179.863 L161.743,165.353" fill="#D18E36"></path>
		<path d="M67.773,241.625 L41.667,223.777 L55.279,203.868 L81.384,221.716 L67.773,241.625" fill="#1385EF"></path>
		<path d="M251.151,85.743 C252.217,91.346 248.54,96.752 242.938,97.818 C237.335,98.884 231.929,95.206 230.863,89.603 C229.797,84 236.621,64.616 236.621,64.616 C236.621,64.616 250.086,80.14 251.151,85.743" fill="#F8BBB9"></path>
		<path d="M94.674,181.599 C97.193,178.437 104.395,179.986 110.761,185.057 C117.127,190.129 120.246,196.804 117.727,199.965 C115.208,203.127 108.005,201.579 101.639,196.507 C95.274,191.435 92.155,184.761 94.674,181.599" fill="#CC94F8"></path>
		<path d="M107.043,237.362 L89.869,225.216 L96.028,202.68 L113.202,214.826 L107.043,237.362" fill="#67A4E5"></path>
		<path d="M63.476,101.506 L56.114,85.73 L69.786,72.058 L77.149,87.833 L63.476,101.506" fill="#AF2636"></path>
		<path d="M55.832,104.888 C51.714,109.754 52.32,117.037 57.186,121.155 C62.052,125.274 69.334,124.668 73.452,119.804 C77.572,114.937 76.964,107.654 72.099,103.536 L64.642,112.347 L55.832,104.888" fill="#F4ABD7"></path>
		<path d="M45.614,177.747 C48.834,177.747 51.445,180.357 51.445,183.578 C51.445,186.798 48.834,189.409 45.614,189.409 C42.393,189.409 39.783,186.798 39.783,183.578 C39.783,180.357 42.393,177.747 45.614,177.747" fill="#E871CE"></path>
		<path d="M62.156,181.271 L51.482,170.24 L58.675,156.681 L73.793,159.331 L75.944,174.529 L62.156,181.271" fill="#743AA3"></path>
		<path d="M242.671,113.353 C245.938,109.847 250.334,107.996 254.778,107.839 L255.058,115.769 C252.641,115.854 250.256,116.857 248.478,118.765 C244.929,122.574 245.139,128.562 248.948,132.12 C250.856,133.898 253.305,134.73 255.721,134.645 L256,142.574 C251.555,142.73 247.042,141.194 243.535,137.925 C236.524,131.39 236.135,120.365 242.671,113.353" fill="#D348D6"></path>
		<path d="M249.699,155.055 C252.648,156.353 253.476,160.955 251.549,165.334 C249.622,169.714 245.669,172.212 242.72,170.915 C239.771,169.617 238.943,165.015 240.871,160.635 C242.798,156.256 246.751,153.757 249.699,155.055" fill="#9A08C6"></path>
		<path d="M230.673,207.173 L208.304,228.821 L204.625,214.65 L216.632,203.032 L230.673,207.173" fill="#29DBA8"></path>
		<path d="M72.587,62.461 L74.163,67.22 L69.642,68.718 L68.065,63.955 L63.304,65.532 L61.805,61.006 L66.568,59.43 L64.992,54.671 L69.518,53.174 L71.094,57.936 L75.856,56.36 L77.35,60.885 L72.587,62.461" fill="#6176D3"></path>
	</g>
</svg>
